Newaita/actions/22/go-next.svg

<?xml version="1.0" encoding="UTF-8"?>
<svg xmlns="http://www.w3.org/2000/svg" xmlns:xlink="http://www.w3.org/1999/xlink" width="22pt" height="22pt" viewBox="0 0 22 22" version="1.1">
<g id="surface1">
<path style=" stroke:none;fill-rule:nonzero;fill:rgb(25.882354%,25.882354%,25.882354%);fill-opacity:1;" d="M 20.921875 11.085938 C 20.921875 5.542969 16.457031 1.082031 10.914062 1.082031 C 5.371094 1.082031 0.910156 5.542969 0.910156 11.085938 C 0.910156 16.628906 5.371094 21.09375 10.914062 21.09375 C 16.457031 21.09375 20.921875 16.628906 20.921875 11.085938 Z M 19.554688 11.085938 C 19.554688 15.875 15.703125 19.726562 10.914062 19.726562 C 6.128906 19.726562 2.273438 15.875 2.273438 11.085938 C 2.273438 6.300781 6.128906 2.445312 10.914062 2.445312 C 15.703125 2.445312 19.554688 6.300781 19.554688 11.085938 Z M 19.554688 11.085938 "/>
<path style=" stroke:none;fill-rule:nonzero;fill:rgb(14.901961%,65.098041%,60.392159%);fill-opacity:1;" d="M 8.875 6.222656 C 8.699219 6.222656 8.527344 6.289062 8.394531 6.425781 C 8.125 6.691406 8.125 7.121094 8.394531 7.390625 L 12.089844 11.085938 L 8.394531 14.785156 C 8.125 15.050781 8.125 15.484375 8.394531 15.75 C 8.660156 16.015625 9.089844 16.015625 9.359375 15.75 L 13.539062 11.570312 C 13.546875 11.5625 13.554688 11.550781 13.5625 11.542969 C 13.570312 11.535156 13.578125 11.527344 13.585938 11.515625 C 13.59375 11.507812 13.597656 11.5 13.605469 11.488281 C 13.613281 11.480469 13.621094 11.472656 13.625 11.460938 C 13.632812 11.453125 13.636719 11.441406 13.644531 11.433594 C 13.648438 11.421875 13.65625 11.414062 13.660156 11.402344 C 13.664062 11.394531 13.671875 11.382812 13.675781 11.375 C 13.679688 11.363281 13.683594 11.355469 13.6875 11.34375 C 13.691406 11.332031 13.695312 11.324219 13.699219 11.3125 C 13.703125 11.300781 13.707031 11.292969 13.710938 11.28125 C 13.714844 11.269531 13.714844 11.261719 13.71875 11.25 C 13.722656 11.238281 13.722656 11.226562 13.726562 11.21875 C 13.726562 11.207031 13.730469 11.195312 13.730469 11.183594 C 13.734375 11.175781 13.734375 11.164062 13.734375 11.152344 C 13.738281 11.140625 13.738281 11.128906 13.738281 11.121094 C 13.738281 11.109375 13.738281 11.097656 13.738281 11.085938 C 13.738281 11.074219 13.738281 11.066406 13.738281 11.054688 C 13.738281 11.042969 13.738281 11.03125 13.734375 11.023438 C 13.734375 11.011719 13.734375 11 13.730469 10.988281 C 13.730469 10.976562 13.726562 10.96875 13.726562 10.957031 C 13.722656 10.945312 13.722656 10.933594 13.71875 10.925781 C 13.714844 10.914062 13.714844 10.902344 13.710938 10.894531 C 13.707031 10.882812 13.703125 10.871094 13.699219 10.863281 C 13.695312 10.851562 13.691406 10.839844 13.6875 10.832031 C 13.683594 10.820312 13.679688 10.808594 13.675781 10.800781 C 13.671875 10.789062 13.664062 10.78125 13.660156 10.769531 C 13.65625 10.761719 13.648438 10.75 13.644531 10.742188 C 13.636719 10.730469 13.632812 10.722656 13.625 10.710938 C 13.621094 10.703125 13.613281 10.691406 13.605469 10.683594 C 13.597656 10.675781 13.59375 10.664062 13.585938 10.65625 C 13.578125 10.648438 13.570312 10.640625 13.5625 10.628906 C 13.554688 10.621094 13.546875 10.613281 13.539062 10.605469 L 9.359375 6.425781 C 9.222656 6.289062 9.050781 6.222656 8.875 6.222656 Z M 8.875 6.222656 "/>
</g>
</svg>

<svg xmlns="http://www.w3.org/2000/svg" width="22pt" height="22pt" viewBox="0 0 22 22"><path d="M20.922 11.086A9.984 9.984 0 0 0 10.914 1.082 9.981 9.981 0 0 0 .91 11.086a9.984 9.984 0 0 0 10.004 10.008 9.988 9.988 0 0 0 10.008-10.008zm-1.367 0c0 4.789-3.852 8.64-8.64 8.64a8.621 8.621 0 0 1-8.642-8.64 8.624 8.624 0 0 1 8.641-8.64c4.79 0 8.64 3.855 8.64 8.64zm0 0" fill="#424242"/><path d="M8.875 6.223a.662.662 0 0 0-.48.203.677.677 0 0 0 0 .965l3.695 3.695-3.695 3.7c-.27.265-.27.698 0 .964a.684.684 0 0 0 .964 0l4.18-4.18c.008-.008.016-.02.024-.027.007-.008.015-.016.023-.027.008-.008.012-.016.02-.028.007-.008.015-.015.019-.027.008-.008.012-.02.02-.027.003-.012.011-.02.015-.032l.016-.027.011-.031.012-.031.012-.032c.004-.011.004-.02.008-.031.004-.012.004-.023.008-.031 0-.012.003-.024.003-.035.004-.008.004-.02.004-.032.004-.011.004-.023.004-.03v-.036-.031c0-.012 0-.024-.004-.032 0-.011 0-.023-.004-.035 0-.011-.003-.02-.003-.031-.004-.012-.004-.023-.008-.031-.004-.012-.004-.024-.008-.031l-.012-.032-.011-.031a.269.269 0 0 0-.012-.031c-.004-.012-.012-.02-.016-.031-.004-.008-.012-.02-.015-.028l-.02-.031a.119.119 0 0 0-.02-.027c-.007-.008-.011-.02-.02-.028a.17.17 0 0 1-.023-.027l-.023-.024-4.18-4.18a.677.677 0 0 0-.484-.202zm0 0" fill="#26a69a"/></svg>
